gama.ui.shared/icons_svg/dark/navigator/folder.user.svg

<svg height="24.75" viewBox="-614.649 -3558.148 24.75 24.75" width="24.75" xmlns="http://www.w3.org/2000/svg"><g fill="none"><path d="m-612.9821-3551.6874 10.08-.48 2.4 3.36 9.12.72v13.44h-21.6z" fill="#666566"/><path d="m-611.2741-3551.773c-.9941 0-1.8.806-1.8 1.8v13.2c0 .994.8059 1.8 1.8 1.8h18c.9941 0 1.8-.806 1.8-1.8v-9.6c0-.994-.8059-1.8-1.8-1.8h-6.6c-1.3255 0-2.4-1.0746-2.4-2.4 0-.663-.5373-1.2-1.2-1.2zm0-1.2h7.8c1.3255 0 2.4 1.0744 2.4 2.4 0 .6626.53725 1.2 1.2 1.2h6.6c1.65686 0 3 1.343 3 3v9.6c0 1.6568-1.34314 3-3 3h-18c-1.6569 0-3-1.3432-3-3v-13.2c0-1.657 1.3431-3 3-3z" fill="#8eed62"/><path d="m-600.2735-3541.0306 2.2468 1.0213c.5801.2637.9526.8423.9526 1.4793v.463c0 .8974-.72756 1.625-1.625 1.625h-7.15c-.8975 0-1.625-.7276-1.625-1.625v-.463c0-.637.37244-1.2156.95255-1.4793l2.24685-1.0213c-.76056-.5948-1.2494-1.521-1.2494-2.5614 0-1.795 1.45506-3.25 3.25-3.25 1.7949 0 3.25 1.455 3.25 3.25 0 1.0404-.4889 1.9666-1.2494 2.5614zm-3.3258.407-2.6533 1.2061c-.34805.1582-.5715.5052-.5715.8875v.463c0 .5385.4365.975.975.975h7.15c.53846 0 .975-.4365.975-.975v-.463c0-.3823-.2235-.7293-.57156-.8875l-2.65328-1.2061c-.40471.181-.85316.2816-1.32516.2816s-.9205-.1006-1.3252-.2816zm1.3252-.3684c1.4359 0 2.6-1.164 2.6-2.6s-1.1641-2.6-2.6-2.6c-1.43596 0-2.6 1.164-2.6 2.6s1.16404 2.6 2.6 2.6z" fill="#8eed62"/><path d="m-600.2735-3541.0306 2.2468 1.0213c.5801.2637.9526.8423.9526 1.4793v.463c0 .8974-.72756 1.625-1.625 1.625h-7.15c-.8975 0-1.625-.7276-1.625-1.625v-.463c0-.637.37244-1.2156.95255-1.4793l2.24685-1.0213c-.76056-.5948-1.2494-1.521-1.2494-2.5614 0-1.795 1.45506-3.25 3.25-3.25 1.7949 0 3.25 1.455 3.25 3.25 0 1.0404-.4889 1.9666-1.2494 2.5614zm-3.3258.407-2.6533 1.2061c-.34805.1582-.5715.5052-.5715.8875v.463c0 .5385.4365.975.975.975h7.15c.53846 0 .975-.4365.975-.975v-.463c0-.3823-.2235-.7293-.57156-.8875l-2.65328-1.2061c-.40471.181-.85316.2816-1.32516.2816s-.9205-.1006-1.3252-.2816zm1.3252-.3684c1.4359 0 2.6-1.164 2.6-2.6s-1.1641-2.6-2.6-2.6c-1.43596 0-2.6 1.164-2.6 2.6s1.16404 2.6 2.6 2.6z" stroke="#8eed62" stroke-linejoin="round" stroke-width=".25"/></g></svg>

<?xml version="1.0" encoding="UTF-8" standalone="no"?>
<!DOCTYPE svg PUBLIC "-//W3C//DTD SVG 1.1//EN" "http://www.w3.org/Graphics/SVG/1.1/DTD/svg11.dtd">
<svg xmlns:xl="http://www.w3.org/1999/xlink" version="1.1" xmlns="http://www.w3.org/2000/svg" xmlns:dc="http://purl.org/dc/elements/1.1/" viewBox="-614.6491 -3558.148 24.750035 24.750025" width="24.750035" height="24.750025">
  <defs/>
  <g id="SOURCES" fill-opacity="1" stroke-dasharray="none" fill="none" stroke="none" stroke-opacity="1">
    <title>SOURCES</title>
    <g id="SOURCES_Dark">
      <title>Dark</title>
      <g id="Graphic_12663"/>
      <g id="Graphic_12662">
        <path d="M -612.9821 -3551.6874 L -602.9021 -3552.1674 L -600.5021 -3548.8074 L -591.3821 -3548.0874 L -591.3821 -3534.6474 L -612.9821 -3534.6474 Z" fill="#666566"/>
      </g>
      <g id="Graphic_12661">
        <path d="M -611.2741 -3551.773 C -612.2682 -3551.773 -613.0741 -3550.967 -613.0741 -3549.973 L -613.0741 -3536.773 C -613.0741 -3535.779 -612.2682 -3534.973 -611.2741 -3534.973 L -593.2741 -3534.973 C -592.28 -3534.973 -591.4741 -3535.779 -591.4741 -3536.773 L -591.4741 -3546.373 C -591.4741 -3547.367 -592.28 -3548.173 -593.2741 -3548.173 L -599.8741 -3548.173 C -601.1996 -3548.173 -602.2741 -3549.2476 -602.2741 -3550.573 C -602.2741 -3551.236 -602.8114 -3551.773 -603.4741 -3551.773 Z M -611.2741 -3552.973 L -603.4741 -3552.973 C -602.1486 -3552.973 -601.0741 -3551.8986 -601.0741 -3550.573 C -601.0741 -3549.9104 -600.53685 -3549.373 -599.8741 -3549.373 L -593.2741 -3549.373 C -591.61724 -3549.373 -590.2741 -3548.03 -590.2741 -3546.373 L -590.2741 -3536.773 C -590.2741 -3535.1162 -591.61724 -3533.773 -593.2741 -3533.773 L -611.2741 -3533.773 C -612.931 -3533.773 -614.2741 -3535.1162 -614.2741 -3536.773 L -614.2741 -3549.973 C -614.2741 -3551.63 -612.931 -3552.973 -611.2741 -3552.973 Z" fill="#8eed62"/>
      </g>
      <g id="Graphic_12660">
        <path d="M -600.2735 -3541.0306 L -598.0267 -3540.0093 C -597.4466 -3539.7456 -597.0741 -3539.167 -597.0741 -3538.53 L -597.0741 -3538.067 C -597.0741 -3537.1696 -597.80166 -3536.442 -598.6991 -3536.442 L -605.8491 -3536.442 C -606.7466 -3536.442 -607.4741 -3537.1696 -607.4741 -3538.067 L -607.4741 -3538.53 C -607.4741 -3539.167 -607.10166 -3539.7456 -606.52155 -3540.0093 L -604.2747 -3541.0306 C -605.03526 -3541.6254 -605.5241 -3542.5516 -605.5241 -3543.592 C -605.5241 -3545.387 -604.06904 -3546.842 -602.2741 -3546.842 C -600.4792 -3546.842 -599.0241 -3545.387 -599.0241 -3543.592 C -599.0241 -3542.5516 -599.513 -3541.6254 -600.2735 -3541.0306 Z M -603.5993 -3540.6236 L -606.2526 -3539.4175 C -606.60065 -3539.2593 -606.8241 -3538.9123 -606.8241 -3538.53 L -606.8241 -3538.067 C -606.8241 -3537.5285 -606.3876 -3537.092 -605.8491 -3537.092 L -598.6991 -3537.092 C -598.16064 -3537.092 -597.7241 -3537.5285 -597.7241 -3538.067 L -597.7241 -3538.53 C -597.7241 -3538.9123 -597.9476 -3539.2593 -598.29566 -3539.4175 L -600.94894 -3540.6236 C -601.35365 -3540.4426 -601.8021 -3540.342 -602.2741 -3540.342 C -602.7461 -3540.342 -603.1946 -3540.4426 -603.5993 -3540.6236 Z M -602.2741 -3540.992 C -600.8382 -3540.992 -599.6741 -3542.156 -599.6741 -3543.592 C -599.6741 -3545.028 -600.8382 -3546.192 -602.2741 -3546.192 C -603.71006 -3546.192 -604.8741 -3545.028 -604.8741 -3543.592 C -604.8741 -3542.156 -603.71006 -3540.992 -602.2741 -3540.992 Z" fill="#8eed62"/>
        <path d="M -600.2735 -3541.0306 L -598.0267 -3540.0093 C -597.4466 -3539.7456 -597.0741 -3539.167 -597.0741 -3538.53 L -597.0741 -3538.067 C -597.0741 -3537.1696 -597.80166 -3536.442 -598.6991 -3536.442 L -605.8491 -3536.442 C -606.7466 -3536.442 -607.4741 -3537.1696 -607.4741 -3538.067 L -607.4741 -3538.53 C -607.4741 -3539.167 -607.10166 -3539.7456 -606.52155 -3540.0093 L -604.2747 -3541.0306 C -605.03526 -3541.6254 -605.5241 -3542.5516 -605.5241 -3543.592 C -605.5241 -3545.387 -604.06904 -3546.842 -602.2741 -3546.842 C -600.4792 -3546.842 -599.0241 -3545.387 -599.0241 -3543.592 C -599.0241 -3542.5516 -599.513 -3541.6254 -600.2735 -3541.0306 Z M -603.5993 -3540.6236 L -606.2526 -3539.4175 C -606.60065 -3539.2593 -606.8241 -3538.9123 -606.8241 -3538.53 L -606.8241 -3538.067 C -606.8241 -3537.5285 -606.3876 -3537.092 -605.8491 -3537.092 L -598.6991 -3537.092 C -598.16064 -3537.092 -597.7241 -3537.5285 -597.7241 -3538.067 L -597.7241 -3538.53 C -597.7241 -3538.9123 -597.9476 -3539.2593 -598.29566 -3539.4175 L -600.94894 -3540.6236 C -601.35365 -3540.4426 -601.8021 -3540.342 -602.2741 -3540.342 C -602.7461 -3540.342 -603.1946 -3540.4426 -603.5993 -3540.6236 Z M -602.2741 -3540.992 C -600.8382 -3540.992 -599.6741 -3542.156 -599.6741 -3543.592 C -599.6741 -3545.028 -600.8382 -3546.192 -602.2741 -3546.192 C -603.71006 -3546.192 -604.8741 -3545.028 -604.8741 -3543.592 C -604.8741 -3542.156 -603.71006 -3540.992 -602.2741 -3540.992 Z" stroke="#8eed62" stroke-linecap="butt" stroke-linejoin="round" stroke-width=".25"/>
      </g>
    </g>
  </g>
</svg>
